X:372
T: EI MEI LIEBES MALCHEN
N: E1558
O: Europa, Mitteleuropa, Deutschland, Kuhlaendchen
R: Staende -, Bauern - Lied, Flachsbrechen, bei der Arbeit
M: 3/4
L: 1/8
K: E
 | BBB2e2 | =ddB2
d2 | AAAB=cA | B4z
E | EF=GGFF | =GE=DDG
G | FF=GGBA | =GGF2D2 | E4z2

